X:100
T: Spanish Lady
Z: B.Black
R: polka
M: 2/4
L: 1/8
K: D
FA AB/c/ | dd ef | gf/e/ fd | BA A2 |
FA AB/c/ | dd ef | gf/e/ fd | BA A2 :|
fa af | ed de | fa af | ed e2 |
fa af | ed de/f/ | ge fd | BA A2 :|
